X: 39640
T: Temple In The Glen, The
R: reel
M: 4/4
K: Gmajor
|:DG~G2 DGAF|G2Bd efga|bg~g2 gedB|ABBA BAGE|
DG~G2 DGAF|G2Bd efga|bg~g2 gedB|1 ABBA G3E:|2 ABBA GBdB||
G2Bd eB~B2|GABG AGED|G2Bd eg~g2|agbg aged|
G2Bd eB~B2|gBfB egdB|G2Bd gdBG|1 FGAF G3A:|2 FGAF GFEF||

